assets/img/blocks/block-imagecomparison.svg

<svg xmlns="http://www.w3.org/2000/svg" version="1.1" xmlns:xlink="http://www.w3.org/1999/xlink" preserveAspectRatio="none" x="0px" y="0px" width="42px" height="42px" viewBox="0 0 42 42">
<defs>
<linearGradient id="Gradient_1" gradientUnits="userSpaceOnUse" x1="5.262499999999999" y1="21.25" x2="36.6375" y2="21.25" spreadMethod="pad">
<stop  offset="0%" stop-color="#0000D2"/>

<stop  offset="54.509803921568626%" stop-color="#00C0FB"/>

<stop  offset="73.33333333333333%" stop-color="#00B4F9"/>

<stop  offset="100%" stop-color="#047DEC"/>
</linearGradient>

<linearGradient id="Gradient_2" gradientUnits="userSpaceOnUse" x1="8.3" y1="26.9375" x2="33.8" y2="15.5625" spreadMethod="pad">
<stop  offset="0%" stop-color="#0000D2"/>

<stop  offset="54.509803921568626%" stop-color="#00C0FB"/>

<stop  offset="73.33333333333333%" stop-color="#00B4F9"/>

<stop  offset="100%" stop-color="#047DEC"/>
</linearGradient>

<linearGradient id="Gradient_3" gradientUnits="userSpaceOnUse" x1="12.4125" y1="23.9125" x2="29.6875" y2="18.5875" spreadMethod="pad">
<stop  offset="0%" stop-color="#0000D2"/>

<stop  offset="54.509803921568626%" stop-color="#00C0FB"/>

<stop  offset="73.33333333333333%" stop-color="#00B4F9"/>

<stop  offset="100%" stop-color="#047DEC"/>
</linearGradient>

<linearGradient id="Gradient_4" gradientUnits="userSpaceOnUse" x1="24.4375" y1="21.25" x2="36.5625" y2="21.25" spreadMethod="pad">
<stop  offset="0%" stop-color="#0088ED"/>

<stop  offset="58.03921568627451%" stop-color="#00BCF9"/>

<stop  offset="100%" stop-color="#00BAF9"/>
</linearGradient>

<g id="Layer1_0_FILL">
<path fill="#FFFFFF" stroke="none" d="
M 44.4 -0.5
L -3.3 -0.5 -3.3 43.6 44.4 43.6 44.4 -0.5 Z"/>
</g>

<g id="Layer0_0_FILL">
<path fill="url(#Gradient_1)" stroke="none" d="
M 20.9 15.35
L 20.8 5.6 9.55 5.6
Q 5.3 5.6 5.3 9.85
L 5.3 32.75
Q 5.3 37 9.55 37
L 21.1 37 21.1 34.2 21 34.2 20.95 26.7
Q 20.6439453125 26.690234375 20.35 26.65
L 20.4 33.45 9.45 33.45 20.35 26.65
Q 18.435546875 26.435546875 17.05 25.05 15.4 23.4 15.4 21.05 15.4 18.7 17.05 17 18.6306640625 15.4193359375 20.9 15.35 Z"/>
</g>

<g id="Layer0_1_FILL">
<path fill="url(#Gradient_2)" stroke="none" d="
M 20.05 26.75
L 20.05 40.15
Q 20.05 40.6 20.5 40.6
L 21.65 40.6
Q 22.1 40.6 22.1 40.15
L 22.1 26.75 21.8 26.75 21.8 26.65
Q 21.5755859375 26.6923828125 21.35 26.7
L 20.7 26.7
Q 20.5748046875 26.6849609375 20.45 26.65
L 20.45 26.75 20.05 26.75
M 22.1 15.3
L 22.1 2.35
Q 22.1 1.9 21.65 1.9
L 20.5 1.9
Q 20.05 1.9 20.05 2.35
L 20.05 15.3 20.5 15.3 20.5 15.4
Q 20.8 15.35 21.1 15.35 21.45 15.35 21.85 15.4
L 21.85 15.3 22.1 15.3 Z"/>
</g>

<g id="Layer0_2_FILL">
<path fill="url(#Gradient_4)" stroke="none" d="
M 32.3 5.6
L 24.45 5.6 24.45 8.45 32.65 8.45
Q 33.85 8.6 33.8 10.05
L 33.8 32.85
Q 33.8 32.95 33.8 33.4
L 33.7 33.35 24.45 25.65 24.45 37 32.3 37
Q 33.1 37 33.8 36.9 36.6 36.2 36.6 32.75
L 36.6 9.85
Q 36.6 5.6 32.3 5.6 Z"/>
</g>

<g id="Layer0_4_FILL">
<path fill="#00EAFF" stroke="none" d="
M 20.2 22.65
L 20.2 19.25 17.9 20.75 20.2 22.65 Z"/>
</g>

<g id="Layer0_5_FILL">
<path fill="#00EAFF" stroke="none" d="
M 24.65 21
L 22.1 19.3 22.1 23.1 24.65 21 Z"/>
</g>

<path id="Layer1_0_1_STROKES" stroke="#FFFFFF" stroke-width="0.1" stroke-linejoin="round" stroke-linecap="round" fill="none" d="
M -3.3 -0.5
L 44.4 -0.5 44.4 43.6 -3.3 43.6 -3.3 -0.5 Z"/>

<path id="Layer0_1_1_STROKES" stroke="url(#Gradient_3)" stroke-width="0.25" stroke-linejoin="round" stroke-linecap="round" fill="none" d="
M 20.05 15.3
L 20.05 2.35
Q 20.05 1.9 20.5 1.9
L 21.65 1.9
Q 22.1 1.9 22.1 2.35
L 22.1 15.3
M 22.1 26.75
L 22.1 40.15
Q 22.1 40.6 21.65 40.6
L 20.5 40.6
Q 20.05 40.6 20.05 40.15
L 20.05 26.75"/>

<path id="Layer0_3_1_STROKES" stroke="#00EAFF" stroke-width="0.25" stroke-linejoin="round" stroke-linecap="round" fill="none" d="
M 26.75 21.05
Q 26.75 23.4 25.05 25.05 23.45 26.7 21.1 26.7 18.7 26.7 17.05 25.05 15.4 23.4 15.4 21.05 15.4 18.7 17.05 17 18.7 15.35 21.1 15.35 23.45 15.35 25.05 17 26.75 18.7 26.75 21.05 Z"/>
</defs>

<g transform="matrix( 1, 0, 0, 1, 0,0) ">
<use xlink:href="#Layer1_0_FILL"/>

<use xlink:href="#Layer1_0_1_STROKES"/>
</g>

<g transform="matrix( 1, 0, 0, 1, 0,0) ">
<use xlink:href="#Layer0_0_FILL"/>
</g>

<g transform="matrix( 1, 0, 0, 1, 0,0) ">
<use xlink:href="#Layer0_1_FILL"/>

<use xlink:href="#Layer0_1_1_STROKES"/>
</g>

<g transform="matrix( 1, 0, 0, 1, 0,0) ">
<use xlink:href="#Layer0_2_FILL"/>
</g>

<g transform="matrix( 1, 0, 0, 1, 0,0) ">
<use xlink:href="#Layer0_3_1_STROKES"/>
</g>

<g transform="matrix( 1.124420166015625, 0, 0, 1.124420166015625, -2.65,-2.35) ">
<use xlink:href="#Layer0_4_FILL"/>
</g>

<g transform="matrix( 1, 0, 0, 1, 0,0) ">
<use xlink:href="#Layer0_5_FILL"/>
</g>
</svg>

<?xml version="1.0" encoding="utf-8"?>
<!-- Generator: Adobe Illustrator 23.1.0, SVG Export Plug-In . SVG Version: 6.00 Build 0)  -->
<svg version="1.1" id="Layer_1" xmlns="http://www.w3.org/2000/svg" xmlns:xlink="http://www.w3.org/1999/xlink" x="0px" y="0px"
     viewBox="0 0 42 42" style="enable-background:new 0 0 42 42;" xml:space="preserve">
<style type="text/css">
	.st0{fill:url(#SVGID_1_);}
	.st1{fill:url(#SVGID_2_);}
	.st2{fill:none;stroke:url(#Layer0_1_1_STROKES_1_);stroke-width:0.25;stroke-linecap:round;stroke-linejoin:round;}
	.st3{fill:url(#SVGID_3_);}
	.st4{fill:none;stroke:#00EAFF;stroke-width:0.25;stroke-linecap:round;stroke-linejoin:round;}
	.st5{fill:#00EAFF;}
</style>
    <g transform="matrix( 1, 0, 0, 1, 0,0) ">
	<g>
		<g id="Layer0_0_FILL">

				<linearGradient id="SVGID_1_" gradientUnits="userSpaceOnUse" x1="5.2625" y1="22.7" x2="36.6375" y2="22.7" gradientTransform="matrix(1 0 0 -1 0 44)">
				<stop  offset="0" style="stop-color:#0000D2"/>
                    <stop  offset="0.5451" style="stop-color:#00C0FB"/>
                    <stop  offset="0.7333" style="stop-color:#00B4F9"/>
                    <stop  offset="1" style="stop-color:#047DEC"/>
			</linearGradient>
            <path class="st0" d="M20.9,15.4l-0.1-9.8H9.6C6.7,5.6,5.3,7,5.3,9.9v22.9c0,2.8,1.4,4.3,4.3,4.3h11.6v-2.8H21l0-7.5
				c-0.2,0-0.4,0-0.6-0.1l0,6.8H9.4l10.9-6.8C19.1,26.5,18,26,17,25c-1.1-1.1-1.7-2.4-1.6-4c0-1.6,0.6-2.9,1.6-4
				C18.1,15.9,19.4,15.4,20.9,15.4z"/>
		</g>
	</g>
</g>
    <g transform="matrix( 1, 0, 0, 1, 0,0) ">
	<g>
		<g id="Layer0_1_FILL">

				<linearGradient id="SVGID_2_" gradientUnits="userSpaceOnUse" x1="8.3041" y1="17.0532" x2="33.8041" y2="28.4282" gradientTransform="matrix(1 0 0 -1 0 44)">
				<stop  offset="0" style="stop-color:#0000D2"/>
                    <stop  offset="0.5451" style="stop-color:#00C0FB"/>
                    <stop  offset="0.7333" style="stop-color:#00B4F9"/>
                    <stop  offset="1" style="stop-color:#047DEC"/>
			</linearGradient>
            <path class="st1" d="M20,26.8v13.4c0,0.3,0.1,0.4,0.5,0.4h1.1c0.3,0,0.5-0.1,0.5-0.4V26.8h-0.3v-0.1c-0.1,0-0.3,0-0.4,0.1h-0.6
				c-0.1,0-0.2,0-0.3-0.1v0.1H20 M22.1,15.3v-13c0-0.3-0.2-0.4-0.5-0.4h-1.1C20.2,1.9,20,2,20,2.3v13h0.5v0.1c0.2,0,0.4,0,0.6,0
				c0.2,0,0.5,0,0.8,0v-0.1H22.1z"/>
		</g>
	</g>
        <g>

			<linearGradient id="Layer0_1_1_STROKES_1_" gradientUnits="userSpaceOnUse" x1="12.4147" y1="20.0805" x2="29.6897" y2="25.4055" gradientTransform="matrix(1 0 0 -1 0 44)">
			<stop  offset="0" style="stop-color:#0000D2"/>
                <stop  offset="0.5451" style="stop-color:#00C0FB"/>
                <stop  offset="0.7333" style="stop-color:#00B4F9"/>
                <stop  offset="1" style="stop-color:#047DEC"/>
		</linearGradient>
            <path id="Layer0_1_1_STROKES" class="st2" d="M20,15.3v-13c0-0.3,0.1-0.4,0.5-0.4h1.1c0.3,0,0.5,0.1,0.5,0.4v13 M22.1,26.8v13.4
			c0,0.3-0.2,0.4-0.5,0.4h-1.1c-0.3,0-0.5-0.1-0.5-0.4V26.8"/>
	</g>
</g>
    <g transform="matrix( 1, 0, 0, 1, 0,0) ">
	<g>
		<g id="Layer0_2_FILL">

				<linearGradient id="SVGID_3_" gradientUnits="userSpaceOnUse" x1="24.4375" y1="22.7" x2="36.5625" y2="22.7" gradientTransform="matrix(1 0 0 -1 0 44)">
				<stop  offset="0" style="stop-color:#0088ED"/>
                    <stop  offset="0.5804" style="stop-color:#00BCF9"/>
                    <stop  offset="1" style="stop-color:#00BAF9"/>
			</linearGradient>
            <path class="st3" d="M32.3,5.6h-7.8v2.8h8.2c0.8,0.1,1.2,0.6,1.1,1.6v22.8c0,0.1,0,0.3,0,0.6l-0.1-0.1l-9.3-7.7V37h7.8
				c0.5,0,1,0,1.5-0.1c1.9-0.5,2.8-1.9,2.8-4.2V9.9C36.6,7,35.2,5.6,32.3,5.6z"/>
		</g>
	</g>
</g>
    <g transform="matrix( 1, 0, 0, 1, 0,0) ">
	<g>
		<path id="Layer0_3_1_STROKES" class="st4" d="M26.8,21c0,1.6-0.6,2.9-1.7,4c-1.1,1.1-2.4,1.7-3.9,1.7c-1.6,0-3-0.6-4.1-1.7
			s-1.7-2.4-1.6-4c0-1.6,0.6-2.9,1.6-4c1.1-1.1,2.5-1.6,4.1-1.6c1.6,0,2.9,0.6,3.9,1.6C26.2,18.1,26.8,19.5,26.8,21z"/>
	</g>
</g>
    <g transform="matrix( 1.124420166015625, 0, 0, 1.124420166015625, -2.65,-2.35) ">
	<g>
		<g id="Layer0_4_FILL">
			<path class="st5" d="M20.2,22.7v-3.4l-2.3,1.5L20.2,22.7z"/>
		</g>
	</g>
</g>
    <g transform="matrix( 1, 0, 0, 1, 0,0) ">
	<g>
		<g id="Layer0_5_FILL">
			<path class="st5" d="M24.6,21l-2.5-1.7v3.8L24.6,21z"/>
		</g>
	</g>
</g>
</svg>
